16/places/network-server.svg

<?xml version="1.0" encoding="UTF-8" standalone="no"?>
<!-- Created with Inkscape (http://www.inkscape.org/) -->

<svg
   xmlns:dc="http://purl.org/dc/elements/1.1/"
   xmlns:cc="http://creativecommons.org/ns#"
   xmlns:rdf="http://www.w3.org/1999/02/22-rdf-syntax-ns#"
   xmlns:svg="http://www.w3.org/2000/svg"
   xmlns="http://www.w3.org/2000/svg"
   xmlns:sodipodi="http://sodipodi.sourceforge.net/DTD/sodipodi-0.dtd"
   xmlns:inkscape="http://www.inkscape.org/namespaces/inkscape"
   width="16"
   height="16"
   id="svg4159"
   version="1.1"
   inkscape:version="0.92.4 5da689c313, 2019-01-14"
   viewBox="0 0 16 16"
   sodipodi:docname="network-server.svg">
  <defs
     id="defs4161">
    <inkscape:perspective
       sodipodi:type="inkscape:persp3d"
       inkscape:vp_x="0 : 8 : 1"
       inkscape:vp_y="0 : 1000 : 0"
       inkscape:vp_z="16 : 8 : 1"
       inkscape:persp3d-origin="8 : 5.3333333 : 1"
       id="perspective4709" />
  </defs>
  <sodipodi:namedview
     id="base"
     pagecolor="#ffffff"
     bordercolor="#00fff6"
     borderopacity="1"
     inkscape:pageopacity="0"
     inkscape:pageshadow="2"
     inkscape:zoom="31.392433"
     inkscape:cx="-4.2601234"
     inkscape:cy="9.9052405"
     inkscape:current-layer="layer1"
     showgrid="false"
     inkscape:grid-bbox="true"
     inkscape:document-units="px"
     inkscape:window-width="1920"
     inkscape:window-height="1016"
     inkscape:window-x="0"
     inkscape:window-y="27"
     inkscape:window-maximized="1"
     showguides="true"
     inkscape:guide-bbox="true">
    <inkscape:grid
       type="xygrid"
       id="grid4707" />
  </sodipodi:namedview>
  <metadata
     id="metadata4164">
    <rdf:RDF>
      <cc:Work
         rdf:about="">
        <dc:format>image/svg+xml</dc:format>
        <dc:type
           rdf:resource="http://purl.org/dc/dcmitype/StillImage" />
        <dc:title />
        <cc:license
           rdf:resource="dribbble.com/chrisdiaz" />
        <dc:creator>
          <cc:Agent>
            <dc:title>Chris D</dc:title>
          </cc:Agent>
        </dc:creator>
        <dc:description>diazchris.deviantart.com</dc:description>
      </cc:Work>
    </rdf:RDF>
  </metadata>
  <g
     id="layer1"
     inkscape:label="Layer 1"
     inkscape:groupmode="layer">
    <g
       id="g896">
      <rect
         y="0"
         x="3"
         height="12"
         width="10"
         id="rect835"
         style="opacity:1;fill:#464d56;fill-opacity:1;fill-rule:nonzero;stroke:none;stroke-width:6;stroke-linecap:square;stroke-linejoin:bevel;stroke-miterlimit:4;stroke-dasharray:none;stroke-dashoffset:35;stroke-opacity:1" />
      <path
         inkscape:connector-curvature="0"
         id="rect823"
         d="m 7,11 v 3 H 1 v 2 H 15 V 14 H 9 v -3 z"
         style="opacity:1;fill:#7fb9ec;fill-opacity:1;fill-rule:nonzero;stroke:none;stroke-width:6;stroke-linecap:square;stroke-linejoin:bevel;stroke-miterlimit:4;stroke-dasharray:none;stroke-dashoffset:35;stroke-opacity:1" />
      <path
         inkscape:connector-curvature="0"
         id="rect815"
         d="m 3,0 v 12 h 1 8 1 V 1 0 H 4 Z m 1,1 h 8 V 11 H 4 Z"
         style="opacity:1;fill:#33383f;fill-opacity:1;fill-rule:nonzero;stroke:none;stroke-width:6;stroke-linecap:square;stroke-linejoin:bevel;stroke-miterlimit:4;stroke-dasharray:none;stroke-dashoffset:35;stroke-opacity:1" />
      <rect
         y="2"
         x="5"
         height="2"
         width="6"
         id="rect829"
         style="opacity:1;fill:#a8b4bd;fill-opacity:1;fill-rule:nonzero;stroke:none;stroke-width:6;stroke-linecap:square;stroke-linejoin:bevel;stroke-miterlimit:4;stroke-dasharray:none;stroke-dashoffset:35;stroke-opacity:1" />
      <rect
         y="6"
         x="5"
         height="2"
         width="6"
         id="rect831"
         style="opacity:1;fill:#a8b4bd;fill-opacity:1;fill-rule:nonzero;stroke:none;stroke-width:6;stroke-linecap:square;stroke-linejoin:bevel;stroke-miterlimit:4;stroke-dasharray:none;stroke-dashoffset:35;stroke-opacity:1" />
      <rect
         y="10"
         x="6"
         height="1"
         width="1"
         id="rect833"
         style="opacity:1;fill:#33383f;fill-opacity:1;fill-rule:nonzero;stroke:none;stroke-width:6;stroke-linecap:square;stroke-linejoin:bevel;stroke-miterlimit:4;stroke-dasharray:none;stroke-dashoffset:35;stroke-opacity:1" />
      <rect
         y="9"
         x="5"
         height="1"
         width="1"
         id="rect833-7"
         style="opacity:1;fill:#33383f;fill-opacity:1;fill-rule:nonzero;stroke:none;stroke-width:6;stroke-linecap:square;stroke-linejoin:bevel;stroke-miterlimit:4;stroke-dasharray:none;stroke-dashoffset:35;stroke-opacity:1" />
      <rect
         y="9"
         x="7"
         height="1"
         width="1"
         id="rect833-5"
         style="opacity:1;fill:#33383f;fill-opacity:1;fill-rule:nonzero;stroke:none;stroke-width:6;stroke-linecap:square;stroke-linejoin:bevel;stroke-miterlimit:4;stroke-dasharray:none;stroke-dashoffset:35;stroke-opacity:1" />
      <rect
         y="9"
         x="9"
         height="1"
         width="1"
         id="rect833-3"
         style="opacity:1;fill:#33383f;fill-opacity:1;fill-rule:nonzero;stroke:none;stroke-width:6;stroke-linecap:square;stroke-linejoin:bevel;stroke-miterlimit:4;stroke-dasharray:none;stroke-dashoffset:35;stroke-opacity:1" />
      <rect
         y="10"
         x="8"
         height="1"
         width="1"
         id="rect833-56"
         style="opacity:1;fill:#33383f;fill-opacity:1;fill-rule:nonzero;stroke:none;stroke-width:6;stroke-linecap:square;stroke-linejoin:bevel;stroke-miterlimit:4;stroke-dasharray:none;stroke-dashoffset:35;stroke-opacity:1" />
      <rect
         y="10"
         x="10"
         height="1"
         width="1"
         id="rect833-2"
         style="opacity:1;fill:#33383f;fill-opacity:1;fill-rule:nonzero;stroke:none;stroke-width:6;stroke-linecap:square;stroke-linejoin:bevel;stroke-miterlimit:4;stroke-dasharray:none;stroke-dashoffset:35;stroke-opacity:1" />
    </g>
  </g>
</svg>

<?xml version="1.0" encoding="UTF-8" standalone="no"?>
<!-- Created with Inkscape (http://www.inkscape.org/) -->

<svg
   xmlns:dc="http://purl.org/dc/elements/1.1/"
   xmlns:cc="http://creativecommons.org/ns#"
   xmlns:rdf="http://www.w3.org/1999/02/22-rdf-syntax-ns#"
   xmlns:svg="http://www.w3.org/2000/svg"
   xmlns="http://www.w3.org/2000/svg"
   xmlns:sodipodi="http://sodipodi.sourceforge.net/DTD/sodipodi-0.dtd"
   xmlns:inkscape="http://www.inkscape.org/namespaces/inkscape"
   width="16"
   height="16"
   id="svg4159"
   version="1.1"
   inkscape:version="0.92.4 5da689c313, 2019-01-14"
   viewBox="0 0 16 16"
   sodipodi:docname="network-server.svg">
  <defs
     id="defs4161">
    <inkscape:perspective
       sodipodi:type="inkscape:persp3d"
       inkscape:vp_x="0 : 8 : 1"
       inkscape:vp_y="0 : 1000 : 0"
       inkscape:vp_z="16 : 8 : 1"
       inkscape:persp3d-origin="8 : 5.3333333 : 1"
       id="perspective4709" />
  </defs>
  <sodipodi:namedview
     id="base"
     pagecolor="#ffffff"
     bordercolor="#00fff6"
     borderopacity="1"
     inkscape:pageopacity="0"
     inkscape:pageshadow="2"
     inkscape:zoom="31.392433"
     inkscape:cx="7.4305921"
     inkscape:cy="7.133872"
     inkscape:current-layer="layer1"
     showgrid="false"
     inkscape:grid-bbox="true"
     inkscape:document-units="px"
     inkscape:window-width="1920"
     inkscape:window-height="1016"
     inkscape:window-x="0"
     inkscape:window-y="27"
     inkscape:window-maximized="1"
     showguides="true"
     inkscape:guide-bbox="true">
    <inkscape:grid
       type="xygrid"
       id="grid4707" />
  </sodipodi:namedview>
  <metadata
     id="metadata4164">
    <rdf:RDF>
      <cc:Work
         rdf:about="">
        <dc:format>image/svg+xml</dc:format>
        <dc:type
           rdf:resource="http://purl.org/dc/dcmitype/StillImage" />
        <dc:title />
        <cc:license
           rdf:resource="dribbble.com/chrisdiaz" />
        <dc:creator>
          <cc:Agent>
            <dc:title>Chris D</dc:title>
          </cc:Agent>
        </dc:creator>
        <dc:description>diazchris.deviantart.com</dc:description>
      </cc:Work>
    </rdf:RDF>
  </metadata>
  <g
     id="layer1"
     inkscape:label="Layer 1"
     inkscape:groupmode="layer">
    <rect
       style="opacity:1;fill:#e0e4e7;fill-opacity:1;fill-rule:nonzero;stroke:none;stroke-width:6;stroke-linecap:square;stroke-linejoin:bevel;stroke-miterlimit:4;stroke-dasharray:none;stroke-dashoffset:35;stroke-opacity:1"
       id="rect835"
       width="10"
       height="12"
       x="3"
       y="0" />
    <path
       style="opacity:1;fill:#7fb9ec;fill-opacity:1;fill-rule:nonzero;stroke:none;stroke-width:6;stroke-linecap:square;stroke-linejoin:bevel;stroke-miterlimit:4;stroke-dasharray:none;stroke-dashoffset:35;stroke-opacity:1"
       d="M 7 11 L 7 14 L 1 14 L 1 16 L 15 16 L 15 14 L 9 14 L 9 11 L 7 11 z "
       id="rect823" />
    <path
       style="opacity:1;fill:#8698a6;fill-opacity:1;fill-rule:nonzero;stroke:none;stroke-width:6;stroke-linecap:square;stroke-linejoin:bevel;stroke-miterlimit:4;stroke-dasharray:none;stroke-dashoffset:35;stroke-opacity:1"
       d="M 3 0 L 3 12 L 4 12 L 12 12 L 13 12 L 13 1 L 13 0 L 4 0 L 3 0 z M 4 1 L 12 1 L 12 11 L 4 11 L 4 1 z "
       id="rect815" />
    <rect
       style="opacity:1;fill:#8698a6;fill-opacity:1;fill-rule:nonzero;stroke:none;stroke-width:6;stroke-linecap:square;stroke-linejoin:bevel;stroke-miterlimit:4;stroke-dasharray:none;stroke-dashoffset:35;stroke-opacity:1"
       id="rect829"
       width="6"
       height="2"
       x="5"
       y="2" />
    <rect
       style="opacity:1;fill:#8698a6;fill-opacity:1;fill-rule:nonzero;stroke:none;stroke-width:6;stroke-linecap:square;stroke-linejoin:bevel;stroke-miterlimit:4;stroke-dasharray:none;stroke-dashoffset:35;stroke-opacity:1"
       id="rect831"
       width="6"
       height="2"
       x="5"
       y="6" />
    <rect
       style="opacity:1;fill:#8698a6;fill-opacity:1;fill-rule:nonzero;stroke:none;stroke-width:6;stroke-linecap:square;stroke-linejoin:bevel;stroke-miterlimit:4;stroke-dasharray:none;stroke-dashoffset:35;stroke-opacity:1"
       id="rect833"
       width="1"
       height="1"
       x="10"
       y="9" />
  </g>
</svg>
